X: 3009
M: C|
L: 1/8
K: Gm
|: a2 |\
b2(gf) f2(ed) | c3B A2g2 | (fg)(fd) c2B2 | A3G ^F2a2 |\
b2(ag) f2(ed) | c3B (AB)c2 | B2(AG) A2^F2 | G6 :|
|: A2 |\
|: A2 |\


